packages/bezier-icons/icons/videocam-off.svg

<svg width="24" height="24" viewBox="0 0 24 24" fill="none" xmlns="http://www.w3.org/2000/svg">
<path fill-rule="evenodd" clip-rule="evenodd" d="M6.20711 1.79289C5.81658 1.40237 5.18342 1.40237 4.79289 1.79289C4.40237 2.18342 4.40237 2.81658 4.79289 3.20711L19.8661 18.2803C20.6536 19.0678 22 18.5101 22 17.3964V6.60355C22 5.48993 20.6536 4.93221 19.8661 5.71967L16.9983 8.58749C16.9955 8.29738 16.9883 8.03593 16.9694 7.80497C16.9371 7.40963 16.8658 7.01641 16.673 6.63803C16.3854 6.07354 15.9265 5.6146 15.362 5.32698C14.9836 5.13419 14.5904 5.06287 14.195 5.03057C13.8205 4.99997 13.3657 4.99998 12.8386 5H9.41422L6.20711 1.79289ZM11.4142 7L15 10.5858V9.2C15 8.62345 14.9992 8.25117 14.9761 7.96784C14.9539 7.69617 14.9162 7.59546 14.891 7.54601C14.7951 7.35785 14.6422 7.20487 14.454 7.109C14.4046 7.0838 14.3038 7.04612 14.0322 7.02393C13.7488 7.00078 13.3766 7 12.8 7H11.4142ZM17 12.5858L20 15.5858V8.41421L17 11.4142V12.5858Z" fill="#313234"/>
<path d="M4.80498 5.03057C4.92462 5.0208 5.05245 5.01414 5.18821 5.00962L7.17859 7H6.2C5.62345 7 5.25118 7.00078 4.96784 7.02393C4.69618 7.04612 4.59546 7.0838 4.54601 7.109C4.35785 7.20487 4.20487 7.35785 4.109 7.54601C4.0838 7.59546 4.04613 7.69617 4.02393 7.96784C4.00078 8.25117 4 8.62345 4 9.2V14.8C4 15.3766 4.00078 15.7488 4.02393 16.0322C4.04613 16.3038 4.0838 16.4045 4.109 16.454C4.20487 16.6422 4.35785 16.7951 4.54601 16.891C4.59546 16.9162 4.69618 16.9539 4.96784 16.9761C5.25118 16.9992 5.62345 17 6.2 17H12.8C13.3766 17 13.7488 16.9992 14.0322 16.9761C14.3038 16.9539 14.4046 16.9162 14.454 16.891C14.6422 16.7951 14.7951 16.6422 14.891 16.454C14.9162 16.4045 14.9539 16.3038 14.9761 16.0322C14.9989 15.7524 15 15.3858 15 14.8214L16.8964 16.7178C16.8502 16.9357 16.7805 17.1511 16.673 17.362C16.3854 17.9265 15.9265 18.3854 15.362 18.673C14.9836 18.8658 14.5904 18.9371 14.195 18.9694C13.8205 19 13.3657 19 12.8386 19H6.16148C5.63435 19 5.17954 19 4.80498 18.9694C4.40963 18.9371 4.01641 18.8658 3.63803 18.673C3.07355 18.3854 2.6146 17.9265 2.32698 17.362C2.13419 16.9836 2.06287 16.5904 2.03057 16.195C1.99997 15.8205 1.99998 15.3657 2 14.8386V9.16146C1.99998 8.63434 1.99997 8.17953 2.03057 7.80497C2.06287 7.40963 2.13419 7.01641 2.32698 6.63803C2.6146 6.07354 3.07355 5.6146 3.63803 5.32698C4.01641 5.13419 4.40963 5.06287 4.80498 5.03057Z" fill="#313234"/>
</svg>

<svg xmlns="http://www.w3.org/2000/svg" width="24" height="24" fill="none" viewBox="0 0 24 24"><path fill="#313234" fill-rule="evenodd" d="M6.207 1.793a1 1 0 0 0-1.414 1.414L19.866 18.28c.788.788 2.134.23 2.134-.884V6.604c0-1.114-1.346-1.672-2.134-.884l-2.868 2.867q-.003-.435-.029-.782c-.032-.395-.103-.789-.296-1.167a3 3 0 0 0-1.311-1.311c-.378-.193-.772-.264-1.167-.296A18 18 0 0 0 12.839 5H9.414zM11.414 7 15 10.586V9.2c0-.577 0-.949-.024-1.232-.022-.272-.06-.373-.085-.422a1 1 0 0 0-.437-.437c-.05-.025-.15-.063-.422-.085C13.75 7 13.377 7 12.8 7zM17 12.586l3 3V8.414l-3 3z" clip-rule="evenodd"/><path fill="#313234" d="M4.805 5.03q.18-.014.383-.02L7.178 7H6.2c-.577 0-.949 0-1.232.024-.272.022-.373.06-.422.085a1 1 0 0 0-.437.437c-.025.05-.063.15-.085.422C4 8.25 4 8.623 4 9.2v5.6c0 .577 0 .949.024 1.232.022.272.06.372.085.422a1 1 0 0 0 .437.437c.05.025.15.063.422.085C5.25 17 5.623 17 6.2 17h6.6c.577 0 .949 0 1.232-.024.272-.022.373-.06.422-.085a1 1 0 0 0 .437-.437c.025-.05.063-.15.085-.422.023-.28.024-.646.024-1.21l1.896 1.896a2.6 2.6 0 0 1-.223.644 3 3 0 0 1-1.311 1.311c-.378.193-.772.264-1.167.296-.375.031-.83.031-1.356.031H6.16c-.527 0-.981 0-1.356-.03-.395-.033-.789-.104-1.167-.297a3 3 0 0 1-1.311-1.311c-.193-.378-.264-.772-.296-1.167A18 18 0 0 1 2 14.839V9.16c0-.527 0-.981.03-1.356.033-.395.104-.789.297-1.167a3 3 0 0 1 1.311-1.311c.378-.193.772-.264 1.167-.296"/></svg>
